azure-patterns/svg-sql-server.svg

<svg xmlns="http://www.w3.org/2000/svg" viewBox="0 0 49 40">
                                
                            
  <path d="M30.0924 25.4001V18.9001C30.0924 17.3001 32.8924 15.9001 36.6924 15.5001L37.0924 15.4001V2.7001L3.69238 2.6001V26.1001H6.59238L7.39238 25.4001H30.0924V25.4001Z" fill="#36C4EA"></path>
  <path d="M30.0925 33.4999C25.3925 33.2999 24.9925 32.2999 26.0925 28.3999H15.4925C16.6925 32.7999 15.0925 33.4999 7.79248 33.5999L30.0925 33.4999Z" fill="#7A7A7A"></path>
  <path d="M7.39258 25.3999L3.89258 28.3999H30.0926V25.3999H7.39258Z" fill="#3E3E3E"></path>
  <path d="M37.1924 0L33.6924 3H36.5924V15.5C36.8924 15.5 37.0924 15.4 37.3924 15.4C38.0924 15.3 38.7924 15.3 39.6924 15.3V2.2C39.5924 1.1 38.2924 0 37.1924 0Z" fill="#3E3E3E"></path>
  <path d="M20.7924 13.4998L13.7924 9.5998C13.6924 9.5998 13.6924 9.4998 13.6924 9.3998C13.6924 9.2998 13.6924 9.2998 13.7924 9.1998L20.5924 5.2998C20.6924 5.2998 20.6924 5.2998 20.7924 5.2998L27.6924 9.1998C27.7924 9.1998 27.7924 9.2998 27.7924 9.3998C27.7924 9.4998 27.7924 9.4998 27.6924 9.5998L20.7924 13.4998Z" fill="white"></path>
  <path d="M19.9926 22.8999V14.9999C19.9926 14.8999 19.9926 14.8999 19.8926 14.7999L13.0926 10.8999C12.9926 10.8999 12.8926 10.8999 12.8926 10.8999C12.8926 10.8999 12.8926 10.9999 12.8926 11.0999V18.9999C12.8926 19.0999 12.8926 19.0999 12.9926 19.1999L19.7926 23.0999H19.8926C19.8926 22.9999 19.9926 22.8999 19.9926 22.8999Z" fill="#BEEDF7"></path>
  <path d="M28.5927 19.0999C28.6927 19.0999 28.6927 18.9999 28.6927 18.8999V11.0999C28.6927 10.9999 28.6927 10.9999 28.5927 10.8999C28.4927 10.8999 28.4927 10.8999 28.3927 10.8999L21.5927 14.7999C21.4927 14.7999 21.4927 14.8999 21.4927 14.9999V22.8999C21.4927 22.9999 21.4927 22.9999 21.5927 23.0999H21.6927H21.7927L28.5927 19.0999Z" fill="#7CDBF1"></path>
  <path d="M3.89258 25.4V3H33.8926L37.3926 0H2.99258C2.49258 0 1.99258 0.2 1.69258 0.5C1.19258 1 0.892578 1.5 0.892578 2.2V26.2C0.892578 27.3 1.89258 28.4 2.99258 28.4H3.89258L7.39258 25.4H3.89258Z" fill="#707070"></path>
  <path d="M20.6927 1.6C20.6927 1.9 20.3927 2.2 20.0927 2.2C19.7927 2.2 19.4927 1.9 19.4927 1.6C19.4927 1.3 19.7927 1 20.0927 1C20.4927 1.1 20.6927 1.3 20.6927 1.6Z" fill="#B7D332"></path>
  <path d="M31.0928 19V36.1C31.0928 37.8 34.9928 39.4 39.9928 39.4V19H31.0928Z" fill="#0072C5"></path>
  <path d="M39.8926 39.3C44.8926 39.3 48.8926 37.9 48.8926 36V19H39.8926V39.3Z" fill="#0072C5"></path>
  <path d="M39.7925 39.2999C44.8925 39.2999 48.8925 37.8999 48.8925 35.9999V18.8999H39.7925V39.2999Z" fill="#3A93CE"></path>
  <path d="M48.8928 19.0002C48.8928 20.7002 44.9928 22.3002 39.9928 22.3002C34.9928 22.3002 31.0928 20.9002 31.0928 19.0002C31.0928 17.1002 34.9928 15.7002 39.9928 15.7002C44.9928 15.7002 48.8928 17.2002 48.8928 19.0002Z" fill="white"></path>
  <path d="M47.0926 18.7998C47.0926 19.8998 43.8926 20.8998 39.9926 20.8998C36.0926 20.8998 32.8926 19.9998 32.8926 18.7998C32.8926 17.5998 36.0926 16.6998 39.9926 16.6998C43.8926 16.5998 47.0926 17.5998 47.0926 18.7998Z" fill="#7FB900"></path>
  <path d="M45.5925 20.0998C46.4925 19.6998 46.9925 19.2998 46.9925 18.8998C46.9925 17.7998 43.7925 16.7998 39.8925 16.7998C35.9925 16.7998 32.7925 17.7998 32.7925 18.8998C32.7925 19.3998 33.3925 19.8998 34.1925 20.0998C35.3925 19.5998 37.4925 19.2998 39.6925 19.2998C42.2925 19.2998 44.2925 19.5998 45.5925 20.0998Z" fill="#B7D332"></path>
  <path d="M37.0926 30.9C37.0926 31.4 36.8926 31.9 36.4926 32.1C36.0926 32.4 35.5926 32.5 34.8926 32.5C34.2926 32.5 33.7926 32.4 33.4926 32.2V31C33.8926 31.4 34.4926 31.6 34.8926 31.6C35.0926 31.6 35.3926 31.6 35.4926 31.5C35.5926 31.4 35.6926 31.3 35.6926 31.1C35.6926 30.9 35.6926 30.8 35.4926 30.7C35.3926 30.6 35.0926 30.4 34.5926 30.2C33.6926 29.8 33.3926 29.2 33.3926 28.6C33.3926 28.1 33.5926 27.7 33.9926 27.5C34.3926 27.2 34.8926 27 35.3926 27C35.8926 27 36.3926 27.1 36.6926 27.2V28.3C36.2926 28.1 35.8926 27.9 35.4926 27.9C35.2926 27.9 35.0926 27.9 34.8926 28C34.7926 28.1 34.6926 28.2 34.6926 28.4C34.6926 28.6 34.7926 28.7 34.8926 28.8C34.9926 28.9 35.1926 29 35.5926 29.2C36.0926 29.4 36.4926 29.7 36.6926 30C36.9926 30.2 37.0926 30.5 37.0926 30.9Z" fill="white"></path>
  <path d="M41.8928 29.5998C41.8928 28.9998 41.7928 28.5998 41.4928 28.2998C41.2928 27.9998 40.8928 27.7998 40.4928 27.7998C40.0928 27.7998 39.6928 27.8998 39.3928 28.2998C39.0928 28.5998 38.9928 29.0998 38.9928 29.5998C38.9928 30.0998 39.0928 30.5998 39.3928 30.8998C39.5928 31.1998 39.9928 31.3998 40.4928 31.3998C40.8928 31.3998 41.2928 31.2998 41.5928 30.8998C41.6928 30.6998 41.8928 30.1998 41.8928 29.5998ZM43.2928 29.5998C43.2928 30.2998 43.1928 30.7998 42.8928 31.2998C42.5928 31.7998 42.1928 32.0998 41.6928 32.2998L43.2928 33.7998H41.6928L40.5928 32.5998C40.0928 32.5998 39.5928 32.4998 39.2928 32.1998C38.8928 31.9998 38.5928 31.5998 38.3928 31.1998C38.1928 30.7998 38.0928 30.2998 38.0928 29.7998C38.0928 29.2998 38.1928 28.6998 38.3928 28.2998C38.5928 27.7998 38.9928 27.4998 39.3928 27.1998C39.7928 26.9998 40.2928 26.7998 40.7928 26.7998C41.2928 26.7998 41.7928 26.8998 42.0928 27.0998C42.4928 27.2998 42.7928 27.6998 43.0928 28.0998C43.1928 28.5998 43.2928 29.0998 43.2928 29.5998Z" fill="white"></path>
  <path d="M47.4924 32.3999H44.1924V26.8999H45.3924V31.4999H47.4924V32.3999V32.3999Z" fill="white"></path>
  <path d="M30.0928 35.9V33.5H7.79277C7.69277 33.5 7.69277 33.5 7.59277 33.5V35.9H30.0928Z" fill="#9FA0A1"></path>
</svg>

<svg xmlns="http://www.w3.org/2000/svg" viewBox="0 0 49 40"><path d="M30.092 25.4v-6.5c0-1.6 2.8-3 6.6-3.4l.4-.1V2.7l-33.4-.1v23.5h2.9l.8-.7h22.7z" fill="#36C4EA"/><path d="M30.093 33.5c-4.7-.2-5.1-1.2-4-5.1h-10.6c1.2 4.4-.4 5.1-7.7 5.2l22.3-.1z" fill="#7A7A7A"/><path d="M7.393 25.4l-3.5 3h26.2v-3h-22.7zM37.192 0l-3.5 3h2.9v12.5c.3 0 .5-.1.8-.1.7-.1 1.4-.1 2.3-.1V2.2c-.1-1.1-1.4-2.2-2.5-2.2z" fill="#3E3E3E"/><path d="M20.792 13.5l-7-3.9c-.1 0-.1-.1-.1-.2s0-.1.1-.2l6.8-3.9h.2l6.9 3.9c.1 0 .1.1.1.2s0 .1-.1.2l-6.9 3.9z" fill="#fff"/><path d="M19.993 22.9V15c0-.1 0-.1-.1-.2l-6.8-3.9h-.2V19c0 .1 0 .1.1.2l6.8 3.9h.1c0-.1.1-.2.1-.2z" fill="#BEEDF7"/><path d="M28.593 19.1c.1 0 .1-.1.1-.2v-7.8c0-.1 0-.1-.1-.2h-.2l-6.8 3.9c-.1 0-.1.1-.1.2v7.9c0 .1 0 .1.1.2h.2l6.8-4z" fill="#7CDBF1"/><path d="M3.893 25.4V3h30l3.5-3h-34.4c-.5 0-1 .2-1.3.5-.5.5-.8 1-.8 1.7v24c0 1.1 1 2.2 2.1 2.2h.9l3.5-3h-3.5z" fill="#707070"/><path d="M20.693 1.6c0 .3-.3.6-.6.6s-.6-.3-.6-.6.3-.6.6-.6c.4.1.6.3.6.6z" fill="#B7D332"/><path d="M31.093 19v17.1c0 1.7 3.9 3.3 8.9 3.3V19h-8.9z" fill="#0072C5"/><path d="M39.893 39.3c5 0 9-1.4 9-3.3V19h-9v20.3z" fill="#0072C5"/><path d="M39.792 39.3c5.1 0 9.1-1.4 9.1-3.3V18.9h-9.1v20.4z" fill="#3A93CE"/><path d="M48.893 19c0 1.7-3.9 3.3-8.9 3.3s-8.9-1.4-8.9-3.3 3.9-3.3 8.9-3.3 8.9 1.5 8.9 3.3z" fill="#fff"/><path d="M47.093 18.8c0 1.1-3.2 2.1-7.1 2.1-3.9 0-7.1-.9-7.1-2.1 0-1.2 3.2-2.1 7.1-2.1 3.9-.1 7.1.9 7.1 2.1z" fill="#7FB900"/><path d="M45.593 20.1c.9-.4 1.4-.8 1.4-1.2 0-1.1-3.2-2.1-7.1-2.1-3.9 0-7.1 1-7.1 2.1 0 .5.6 1 1.4 1.2 1.2-.5 3.3-.8 5.5-.8 2.6 0 4.6.3 5.9.8z" fill="#B7D332"/><path d="M37.093 30.9c0 .5-.2 1-.6 1.2-.4.3-.9.4-1.6.4-.6 0-1.1-.1-1.4-.3V31c.4.4 1 .6 1.4.6.2 0 .5 0 .6-.1.1-.1.2-.2.2-.4s0-.3-.2-.4c-.1-.1-.4-.3-.9-.5-.9-.4-1.2-1-1.2-1.6 0-.5.2-.9.6-1.1.4-.3.9-.5 1.4-.5.5 0 1 .1 1.3.2v1.1c-.4-.2-.8-.4-1.2-.4-.2 0-.4 0-.6.1-.1.1-.2.2-.2.4s.1.3.2.4c.1.1.3.2.7.4.5.2.9.5 1.1.8.3.2.4.5.4.9zM41.893 29.6c0-.6-.1-1-.4-1.3-.2-.3-.6-.5-1-.5s-.8.1-1.1.5c-.3.3-.4.8-.4 1.3s.1 1 .4 1.3c.2.3.6.5 1.1.5.4 0 .8-.1 1.1-.5.1-.2.3-.7.3-1.3zm1.4 0c0 .7-.1 1.2-.4 1.7-.3.5-.7.8-1.2 1l1.6 1.5h-1.6l-1.1-1.2c-.5 0-1-.1-1.3-.4-.4-.2-.7-.6-.9-1-.2-.4-.3-.9-.3-1.4 0-.5.1-1.1.3-1.5.2-.5.6-.8 1-1.1.4-.2.9-.4 1.4-.4.5 0 1 .1 1.3.3.4.2.7.6 1 1 .1.5.2 1 .2 1.5zM47.492 32.4h-3.3v-5.5h1.2v4.6h2.1v.9z" fill="#fff"/><path d="M30.093 35.9v-2.4h-22.5v2.4h22.5z" fill="#9FA0A1"/></svg>
